packages/icons/svg/Fill/linkedin.svg

<svg fill="none" height="24" viewBox="0 0 24 24" width="24" xmlns="http://www.w3.org/2000/svg"><path clip-rule="evenodd" d="m3.00003 5.25c0-1.242 1.008-2.25 2.25-2.25s2.25 1.008 2.25 2.25-1.008 2.25-2.25 2.25-2.25-1.008-2.25-2.25zm12.15037 3.15033c-3.231 0-5.85098 2.60397-5.85098 5.81397v5.885c0 .497.404.901.90098.901h2.099c.497 0 .901-.404.901-.901v-5.885c0-1.136.984-2.044 2.152-1.927 1.014.101 1.747 1.028 1.747 2.047v5.765c0 .497.404.901.901.901h2.099c.497 0 .901-.404.901-.901v-5.885c0-3.21-2.62-5.81397-5.85-5.81397zm-8.55077.8995h-2.699c-.497 0-.901.403-.901.89997v9.9c0 .497.404.9.901.9h2.699c.497 0 .9-.403.9-.9v-9.9c0-.49697-.403-.89997-.9-.89997z" fill="#6b7280" fill-rule="evenodd"/></svg>

<svg width="24" height="24" viewBox="0 0 24 24" fill="none" xmlns="http://www.w3.org/2000/svg">
<g id="Icon/Fill/linkedin">
<path id="Mask" fill-rule="evenodd" clip-rule="evenodd" d="M2.99991 5.25C2.99991 4.008 4.00791 3 5.24991 3C6.49191 3 7.49991 4.008 7.49991 5.25C7.49991 6.492 6.49191 7.5 5.24991 7.5C4.00791 7.5 2.99991 6.492 2.99991 5.25ZM15.1503 8.4004C11.9193 8.4004 9.29931 11.0044 9.29931 14.2144V20.0994C9.29931 20.5964 9.70331 21.0004 10.2003 21.0004H12.2993C12.7963 21.0004 13.2003 20.5964 13.2003 20.0994V14.2144C13.2003 13.0784 14.1843 12.1704 15.3523 12.2874C16.3663 12.3884 17.0993 13.3154 17.0993 14.3344V20.0994C17.0993 20.5964 17.5033 21.0004 18.0003 21.0004H20.0993C20.5963 21.0004 21.0003 20.5964 21.0003 20.0994V14.2144C21.0003 11.0044 18.3803 8.4004 15.1503 8.4004ZM6.59951 9.2998H3.90051C3.40351 9.2998 2.99951 9.7028 2.99951 10.1998V20.0998C2.99951 20.5968 3.40351 20.9998 3.90051 20.9998H6.59951C7.09651 20.9998 7.49951 20.5968 7.49951 20.0998V10.1998C7.49951 9.7028 7.09651 9.2998 6.59951 9.2998Z" fill="#000000"/>
</g>
</svg>
